proprietary/assets/icons/internationaal/pagode.svg

<svg height="64" viewBox="0 0 64 64" width="64" xmlns="http://www.w3.org/2000/svg"><path d="m0 0h64v64h-64z" fill="none"/><path d="m18 52.4535v9.5465h28v-9.5465c-3.727.4529-8.3217.7467-14 .7467s-10.273-.2938-14-.7467z"/><path d="m56.6408 45.6891c-5.1652-.2241-9.3171-1.6561-12.6408-3.6308v-6.4826c-3.2114.3778-7.1514.6245-12 .6245s-8.7886-.2467-12-.6245v6.483c-3.3237 1.9746-7.476 3.4064-12.6409 3.6305-1.0477.0455-1.3415 1.4758-.3826 1.9006 3.4498 1.528 10.622 3.4102 25.0234 3.4102 14.4015 0 21.5737-1.8822 25.0235-3.4103.9589-.4247.6651-1.8551-.3826-1.9006z"/><path d="m10.6487 31.2456c3.2047 1.2886 9.4629 2.7544 21.3512 2.7544 11.8884 0 18.1466-1.4658 21.3514-2.7544 1.0029-.4033.7641-1.8571-.3143-1.9314-4.5349-.3123-8.1594-1.7539-11.037-3.6801v-5.9302c-2.9277.3268-6.2586.4963-10 .4963s-7.0723-.1695-10-.4962v5.9254c-2.8777 1.9276-6.4999 3.3724-11.037 3.6849-1.0785.0742-1.3172 1.528-.3143 1.9313z"/><path d="m14.595 15.9706c2.9617 1.0097 8.2251 2.0294 17.4049 2.0294 9.1799 0 14.4433-1.0197 17.405-2.0294 1.0477-.3572.7931-1.892-.3129-1.9371-9.2674-.3779-13.8834-4.0613-15.8546-6.3071 1.0377-.4719 1.7626-1.512 1.7626-2.7264 0-1.6569-1.3431-3-3-3s-3 1.3431-3 3c0 1.2144.7249 2.2544 1.7626 2.7264-1.9711 2.2458-6.5873 5.9292-15.8547 6.3071-1.106.0452-1.3606 1.58-.3129 1.9371z"/></svg>

<?xml version="1.0" encoding="utf-8"?>
<!-- Generator: Adobe Illustrator 19.1.0, SVG Export Plug-In . SVG Version: 6.00 Build 0)  -->
<svg version="1.2" baseProfile="tiny" xmlns="http://www.w3.org/2000/svg" xmlns:xlink="http://www.w3.org/1999/xlink" x="0px"
	 y="0px" width="64px" height="64px" viewBox="0 0 64 64" xml:space="preserve">
<g id="_x36_4px_Box">
	<rect fill="none" width="64" height="64"/>
</g>
<g id="Icon">
	<g>
		<path d="M18,52.4535V62h28v-9.5465c-3.727,0.4529-8.3217,0.7467-14,0.7467S21.727,52.9064,18,52.4535z"/>
		<path d="M56.6408,45.6891C51.4756,45.465,47.3237,44.033,44,42.0583v-6.4826c-3.2114,0.3778-7.1514,0.6245-12,0.6245
			s-8.7886-0.2467-12-0.6245v6.483c-3.3237,1.9746-7.476,3.4064-12.6409,3.6305c-1.0477,0.0455-1.3415,1.4758-0.3826,1.9006
			C10.4263,49.1178,17.5985,51,31.9999,51c14.4015,0,21.5737-1.8822,25.0235-3.4103C57.9823,47.165,57.6885,45.7346,56.6408,45.6891
			z"/>
		<path d="M10.6487,31.2456C13.8534,32.5342,20.1116,34,31.9999,34c11.8884,0,18.1466-1.4658,21.3514-2.7544
			c1.0029-0.4033,0.7641-1.8571-0.3143-1.9314c-4.5349-0.3123-8.1594-1.7539-11.037-3.6801v-5.9302
			c-2.9277,0.3268-6.2586,0.4963-10,0.4963s-7.0723-0.1695-10-0.4962v5.9254c-2.8777,1.9276-6.4999,3.3724-11.037,3.6849
			C9.8845,29.3885,9.6458,30.8423,10.6487,31.2456z"/>
		<path d="M14.595,15.9706C17.5567,16.9803,22.8201,18,31.9999,18c9.1799,0,14.4433-1.0197,17.405-2.0294
			c1.0477-0.3572,0.7931-1.892-0.3129-1.9371c-9.2674-0.3779-13.8834-4.0613-15.8546-6.3071C34.2751,7.2545,35,6.2144,35,5
			c0-1.6569-1.3431-3-3-3s-3,1.3431-3,3c0,1.2144,0.7249,2.2544,1.7626,2.7264c-1.9711,2.2458-6.5873,5.9292-15.8547,6.3071
			C13.8019,14.0787,13.5473,15.6135,14.595,15.9706z"/>
	</g>
</g>
</svg>
